svg/set/BOT/M.svg

<?xml version="1.0" encoding="utf-8"?>
<!-- Generator: Adobe Illustrator 15.1.0, SVG Export Plug-In . SVG Version: 6.00 Build 0)  -->
<!DOCTYPE svg PUBLIC "-//W3C//DTD SVG 1.1//EN" "http://www.w3.org/Graphics/SVG/1.1/DTD/svg11.dtd">
<svg version="1.1" id="Layer_1" xmlns="http://www.w3.org/2000/svg" xmlns:xlink="http://www.w3.org/1999/xlink" x="0px" y="0px"
	 width="135px" height="155px" viewBox="0 0 135 155" enable-background="new 0 0 135 155" xml:space="preserve">
<g id="Layer_1_1_">
</g>
<g id="Layer_3" display="none">
</g>
<g>
	<path d="M125.779,4.266l-15.582,25.192l-20.041,7.151l5.565-31.883l-9.003,2.649l-9.517,17.175h-12.81
		c-12.438,0-24.889,1.962-37.026,5.833l-0.39-1.871H2.008l8.36,46.336l0.332,0.221l3.882,58.985l34.156,18.026h27.079l42.271-21.803
		l7.917-58.695l0.679-1.03L133.2,2.081L125.779,4.266z"/>
	<linearGradient id="SVGID_1_" gradientUnits="userSpaceOnUse" x1="21.8345" y1="19.1738" x2="121.7623" y2="119.1017">
		<stop  offset="0" style="stop-color:#BB2C26"/>
		<stop  offset="0.0504" style="stop-color:#BE3226"/>
		<stop  offset="0.1163" style="stop-color:#C64225"/>
		<stop  offset="0.1905" style="stop-color:#D35D24"/>
		<stop  offset="0.25" style="stop-color:#E07823"/>
		<stop  offset="0.2566" style="stop-color:#E17A23"/>
		<stop  offset="0.327" style="stop-color:#EE8B1F"/>
		<stop  offset="0.404" style="stop-color:#F5951E"/>
		<stop  offset="0.5" style="stop-color:#F7981D"/>
		<stop  offset="0.596" style="stop-color:#F5951E"/>
		<stop  offset="0.673" style="stop-color:#EE8B1F"/>
		<stop  offset="0.7434" style="stop-color:#E17A23"/>
		<stop  offset="0.75" style="stop-color:#E07823"/>
		<stop  offset="0.7672" style="stop-color:#DB6E23"/>
		<stop  offset="0.8266" style="stop-color:#CD5125"/>
		<stop  offset="0.8857" style="stop-color:#C33D25"/>
		<stop  offset="0.9439" style="stop-color:#BD3026"/>
		<stop  offset="1" style="stop-color:#BB2C26"/>
	</linearGradient>
	<path fill="url(#SVGID_1_)" d="M65.038,66.652v50.546h-4.263V82.357l-5.241-20.056L65.038,66.652z M59.222,132.213l-4.277,16.117
		h10.094v-16.117H59.222z M56.422,122.74V93.689l-11.248,9.473v41.624l5.882,2.735l4.519-19.056h9.464v-5.726H56.422z
		 M127.614,10.375l-5.57,58.544l-51.55,78.358V84.578l7.617-7.533c2.398-2.517,5.518-5.64,8.185-6.366l25.017-8.849l0.312-4.786
		L84.719,67.086l1.238-6.747l26.066-9.409l0.33-5.058l-25.303,8.505l2.33-12.422l23.996-8.562L127.614,10.375z M108.688,73.635
		L73.107,86.82l7.844,16.255L108.688,73.635z M51,42.942c0,0,6.74-2.189,14.038-2.465V29.347
		c-12.607-0.07-25.092,1.899-37.456,5.986l2.047,11.02l35.409,16.454V50.814L51,42.942z M113.688,127.175l6.595-48.88
		l-46.142,69.261L113.688,127.175z M74.586,47.546L70.494,61.11v18.953l9.037-10.352l10.06-57.632L75.298,37.91h-4.804v9.636H74.586
		z M25.814,94.423l-1.202-10.531l-8.907-5.453l3.466,52.65l21.969,11.688v-38.336L25.814,94.423z M30.68,82.671L14.706,72.005
		L7.72,33.287h15.371l3.11,14.995l24.069,11.993l5.9,22.396H30.68z M19.869,55.863l25.558,10.691l-0.823-4.388L19.515,51.64
		L19.869,55.863z M21.052,65.2l26.216,11.188l-0.79-4.221L20.705,61.271L21.052,65.2z"/>
</g>
</svg>

<?xml version="1.0" encoding="UTF-8" standalone="no"?>
<!-- Generator: Adobe Illustrator 15.1.0, SVG Export Plug-In . SVG Version: 6.00 Build 0)  -->

<svg
   version="1.1"
   id="Layer_1"
   x="0px"
   y="0px"
   width="131.192"
   height="149.99899"
   viewBox="0 0 131.192 149.99899"
   enable-background="new 0 0 135 155"
   xml:space="preserve"
   xmlns="http://www.w3.org/2000/svg"
   xmlns:svg="http://www.w3.org/2000/svg"><defs
   id="defs18" />
<g
   id="Layer_1_1_"
   transform="translate(-2.008,-2.081)">
</g>
<g
   id="Layer_3"
   display="none"
   transform="translate(-2.008,-2.081)">
</g>
<g
   id="g18"
   transform="translate(-2.008,-2.081)">
	<path
   d="M 125.779,4.266 110.197,29.458 90.156,36.609 95.721,4.726 86.718,7.375 77.201,24.55 h -12.81 c -12.438,0 -24.889,1.962 -37.026,5.833 l -0.39,-1.871 H 2.008 l 8.36,46.336 0.332,0.221 3.882,58.985 34.156,18.026 h 27.079 l 42.271,-21.803 7.917,-58.695 0.679,-1.03 6.516,-68.471 z"
   id="path1" />
	<linearGradient
   id="SVGID_1_"
   gradientUnits="userSpaceOnUse"
   x1="21.834499"
   y1="19.1738"
   x2="121.7623"
   y2="119.1017">
		<stop
   offset="0"
   style="stop-color:#BB2C26"
   id="stop1" />
		<stop
   offset="0.0504"
   style="stop-color:#BE3226"
   id="stop2" />
		<stop
   offset="0.1163"
   style="stop-color:#C64225"
   id="stop3" />
		<stop
   offset="0.1905"
   style="stop-color:#D35D24"
   id="stop4" />
		<stop
   offset="0.25"
   style="stop-color:#E07823"
   id="stop5" />
		<stop
   offset="0.2566"
   style="stop-color:#E17A23"
   id="stop6" />
		<stop
   offset="0.327"
   style="stop-color:#EE8B1F"
   id="stop7" />
		<stop
   offset="0.404"
   style="stop-color:#F5951E"
   id="stop8" />
		<stop
   offset="0.5"
   style="stop-color:#F7981D"
   id="stop9" />
		<stop
   offset="0.596"
   style="stop-color:#F5951E"
   id="stop10" />
		<stop
   offset="0.673"
   style="stop-color:#EE8B1F"
   id="stop11" />
		<stop
   offset="0.7434"
   style="stop-color:#E17A23"
   id="stop12" />
		<stop
   offset="0.75"
   style="stop-color:#E07823"
   id="stop13" />
		<stop
   offset="0.7672"
   style="stop-color:#DB6E23"
   id="stop14" />
		<stop
   offset="0.8266"
   style="stop-color:#CD5125"
   id="stop15" />
		<stop
   offset="0.8857"
   style="stop-color:#C33D25"
   id="stop16" />
		<stop
   offset="0.9439"
   style="stop-color:#BD3026"
   id="stop17" />
		<stop
   offset="1"
   style="stop-color:#BB2C26"
   id="stop18" />
	</linearGradient>
	<path
   fill="url(#SVGID_1_)"
   d="m 65.038,66.652 v 50.546 H 60.775 V 82.357 L 55.534,62.301 Z m -5.816,65.561 -4.277,16.117 h 10.094 v -16.117 z m -2.8,-9.473 V 93.689 l -11.248,9.473 v 41.624 l 5.882,2.735 4.519,-19.056 h 9.464 v -5.726 h -8.617 z m 71.192,-112.365 -5.57,58.544 -51.55,78.358 V 84.578 l 7.617,-7.533 c 2.398,-2.517 5.518,-5.64 8.185,-6.366 l 25.017,-8.849 0.312,-4.786 -26.906,10.042 1.238,-6.747 26.066,-9.409 0.33,-5.058 -25.303,8.505 2.33,-12.422 23.996,-8.562 z m -18.926,63.26 -35.581,13.185 7.844,16.255 z M 51,42.942 c 0,0 6.74,-2.189 14.038,-2.465 v -11.13 c -12.607,-0.07 -25.092,1.899 -37.456,5.986 l 2.047,11.02 35.409,16.454 V 50.814 Z m 62.688,84.233 6.595,-48.88 -46.142,69.261 z M 74.586,47.546 70.494,61.11 V 80.063 L 79.531,69.711 89.591,12.079 75.298,37.91 h -4.804 v 9.636 z m -48.772,46.877 -1.202,-10.531 -8.907,-5.453 3.466,52.65 21.969,11.688 V 104.441 Z M 30.68,82.671 14.706,72.005 7.72,33.287 h 15.371 l 3.11,14.995 24.069,11.993 5.9,22.396 H 30.68 Z M 19.869,55.863 45.427,66.554 44.604,62.166 19.515,51.64 Z M 21.052,65.2 47.268,76.388 46.478,72.167 20.705,61.271 Z"
   id="path18"
   style="fill:url(#SVGID_1_)" />
</g>
</svg>
